auth/assets/custom-icons/icons/windscribe.svg

<svg width="500" height="500" viewBox="0 0 500 500" fill="none" xmlns="http://www.w3.org/2000/svg">
<g clip-path="url(#clip0_191_1078)">
<g style="mix-blend-mode:difference">
<path d="M261.198 1.60387L416.423 70.2759C420.678 72.1581 424.082 75.5557 425.971 79.8079L498.384 242.732C499.414 245.05 499.963 247.552 499.998 250.089C500.033 252.625 499.553 255.142 498.587 257.487L432.481 418.019C430.609 422.563 427.028 426.191 422.508 428.122L257.746 498.494C255.471 499.465 253.026 499.977 250.552 500C248.078 500.022 245.624 499.555 243.332 498.625L84.66 434.251C80.1712 432.43 76.5614 428.942 74.587 424.519L1.628 261.068C0.585027 258.731 0.0312788 256.206 0.000838817 253.648C-0.0296012 251.089 0.463911 248.551 1.451 246.191L71.265 79.2509C72.2146 76.9794 73.6024 74.9172 75.3491 73.1822C77.0958 71.4472 79.1672 70.0732 81.445 69.1389L246.493 1.40487C248.831 0.444804 251.339 -0.0324825 253.866 0.00171599C256.393 0.0359145 258.887 0.580891 261.198 1.60387ZM253.336 39.1309L102.865 100.883L39.175 253.184L105.754 402.34L250.196 460.942L400.726 396.649L460.856 250.63L394.639 101.645L253.336 39.1329V39.1309Z" fill="white"/>
</g>
<g style="mix-blend-mode:difference">
<path d="M168.865 308.963L237.36 243.644C244.618 236.723 256.037 236.738 263.276 243.679L332.104 309.671V168.751C332.104 158.402 340.504 150.001 350.854 150.001C361.201 150.001 369.604 158.402 369.604 168.751V329.907C369.604 340.262 361.208 348.657 350.854 348.657H326.115C321.279 348.656 316.629 346.788 313.138 343.441L250.264 283.156L187.012 343.476C183.525 346.802 178.891 348.657 174.072 348.657H150.115C139.76 348.657 131.365 340.262 131.365 329.907V168.751C131.365 158.402 139.767 150.001 150.115 150.001C160.464 150.001 168.865 158.402 168.865 168.751V308.963Z" fill="white"/>
</g>
</g>
<defs>
<clipPath id="clip0_191_1078">
<rect width="500" height="500" fill="white"/>
</clipPath>
</defs>
</svg>

<svg xmlns="http://www.w3.org/2000/svg" viewBox="0 0 500 500">
  <path fill="none" d="m253.612 18.751 155.225 68.671 72.412 162.926-66.105 160.531-164.763 70.372-158.672-64.375-72.959-163.45L88.562 86.485l165.05-67.734Z"/>
  <path d="m261.198 1.604 155.225 68.672a18.746 18.746 0 0 1 9.548 9.532l72.413 162.924a18.752 18.752 0 0 1 .203 14.755l-66.106 160.532a18.755 18.755 0 0 1-9.973 10.103l-164.762 70.372a18.751 18.751 0 0 1-14.414.131L84.66 434.251a18.749 18.749 0 0 1-10.073-9.732L1.628 261.068a18.751 18.751 0 0 1-.177-14.877l69.814-166.94a18.744 18.744 0 0 1 10.18-10.112L246.493 1.405a18.741 18.741 0 0 1 14.705.199Zm-7.862 37.527-150.471 61.752-63.69 152.301 66.579 149.156 144.442 58.602 150.53-64.293 60.13-146.019-66.217-148.985-141.303-62.512v-.002Z"/>
  <path fill="none" d="M350.853 168.751v161.156h-24.737L250.3 257.213l-76.228 72.694h-23.957V168.751"/>
  <path d="m168.865 308.963 68.495-65.319c7.258-6.921 18.677-6.906 25.916.035l68.828 65.992v-140.92c0-10.349 8.4-18.75 18.75-18.75 10.347 0 18.75 8.401 18.75 18.75v161.156c0 10.355-8.396 18.75-18.75 18.75h-24.739a18.757 18.757 0 0 1-12.977-5.216l-62.874-60.285-63.252 60.32a18.75 18.75 0 0 1-12.94 5.181h-23.957c-10.355 0-18.75-8.395-18.75-18.75V168.751c0-10.349 8.402-18.75 18.75-18.75 10.349 0 18.75 8.401 18.75 18.75v140.212Z"/>
</svg>
